images/3233569.svg

<?xml version="1.0" encoding="UTF-8"?>
<svg xmlns="http://www.w3.org/2000/svg" xmlns:xlink="http://www.w3.org/1999/xlink" width="300pt" height="300pt" viewBox="0 0 300 300" version="1.1">
<defs>
<g>
<symbol overflow="visible" id="glyph0-0">
<path style="stroke:none;" d="M 0.453125 1.59375 L 0.453125 -6.34375 L 4.953125 -6.34375 L 4.953125 1.59375 Z M 0.953125 1.09375 L 4.453125 1.09375 L 4.453125 -5.84375 L 0.953125 -5.84375 Z M 0.953125 1.09375 "/>
</symbol>
<symbol overflow="visible" id="glyph0-1">
<path style="stroke:none;" d="M 0.890625 -6.5625 L 2.078125 -6.5625 L 4.984375 -1.078125 L 4.984375 -6.5625 L 5.84375 -6.5625 L 5.84375 0 L 4.65625 0 L 1.75 -5.484375 L 1.75 0 L 0.890625 0 Z M 0.890625 -6.5625 "/>
</symbol>
<symbol overflow="visible" id="glyph0-2">
<path style="stroke:none;" d="M 3.546875 -5.953125 C 2.898438 -5.953125 2.382812 -5.710938 2 -5.234375 C 1.625 -4.753906 1.4375 -4.101562 1.4375 -3.28125 C 1.4375 -2.445312 1.625 -1.789062 2 -1.3125 C 2.382812 -0.832031 2.898438 -0.59375 3.546875 -0.59375 C 4.191406 -0.59375 4.703125 -0.832031 5.078125 -1.3125 C 5.453125 -1.789062 5.640625 -2.445312 5.640625 -3.28125 C 5.640625 -4.101562 5.453125 -4.753906 5.078125 -5.234375 C 4.703125 -5.710938 4.191406 -5.953125 3.546875 -5.953125 Z M 3.546875 -6.6875 C 4.460938 -6.6875 5.195312 -6.375 5.75 -5.75 C 6.300781 -5.132812 6.578125 -4.3125 6.578125 -3.28125 C 6.578125 -2.238281 6.300781 -1.410156 5.75 -0.796875 C 5.195312 -0.179688 4.460938 0.125 3.546875 0.125 C 2.617188 0.125 1.878906 -0.179688 1.328125 -0.796875 C 0.773438 -1.410156 0.5 -2.238281 0.5 -3.28125 C 0.5 -4.3125 0.773438 -5.132812 1.328125 -5.75 C 1.878906 -6.375 2.617188 -6.6875 3.546875 -6.6875 Z M 3.546875 -6.6875 "/>
</symbol>
<symbol overflow="visible" id="glyph0-3">
<path style="stroke:none;" d="M 0.890625 -6.5625 L 4.65625 -6.5625 L 4.65625 -5.8125 L 1.765625 -5.8125 L 1.765625 -3.875 L 4.375 -3.875 L 4.375 -3.140625 L 1.765625 -3.140625 L 1.765625 0 L 0.890625 0 Z M 0.890625 -6.5625 "/>
</symbol>
</g>
</defs>
<g id="surface52145">
<rect x="0" y="0" width="300" height="300" style="fill:rgb(100%,100%,100%);fill-opacity:1;stroke:none;"/>
<path style="fill:none;stroke-width:1.2;stroke-linecap:butt;stroke-linejoin:miter;stroke:rgb(0%,0%,0%);stroke-opacity:1;stroke-miterlimit:10;" d="M 48.898438 189.394531 L 51.480469 177.039062 "/>
<path style="fill:none;stroke-width:1.2;stroke-linecap:butt;stroke-linejoin:miter;stroke:rgb(0%,0%,100%);stroke-opacity:1;stroke-miterlimit:10;" d="M 51.480469 177.039062 L 54.066406 164.683594 "/>
<path style="fill:none;stroke-width:1.2;stroke-linecap:butt;stroke-linejoin:miter;stroke:rgb(0%,0%,100%);stroke-opacity:1;stroke-miterlimit:10;" d="M 54.066406 164.683594 L 44.65625 156.269531 "/>
<path style="fill:none;stroke-width:1.2;stroke-linecap:butt;stroke-linejoin:miter;stroke:rgb(0%,0%,0%);stroke-opacity:1;stroke-miterlimit:10;" d="M 44.65625 156.269531 L 35.25 147.851562 "/>
<path style="fill:none;stroke-width:1.2;stroke-linecap:butt;stroke-linejoin:miter;stroke:rgb(0%,0%,0%);stroke-opacity:1;stroke-miterlimit:10;" d="M 78.050781 156.804688 L 66.058594 160.746094 "/>
<path style="fill:none;stroke-width:1.2;stroke-linecap:butt;stroke-linejoin:miter;stroke:rgb(0%,0%,100%);stroke-opacity:1;stroke-miterlimit:10;" d="M 66.058594 160.746094 L 54.066406 164.683594 "/>
<path style=" stroke:none;fill-rule:nonzero;fill:rgb(100%,100%,100%);fill-opacity:1;" d="M 51.066406 159.183594 L 58.066406 159.183594 L 58.066406 170.183594 L 51.066406 170.183594 Z M 51.066406 159.183594 "/>
<g style="fill:rgb(0%,0%,100%);fill-opacity:1;">
  <use xlink:href="#glyph0-1" x="51.066406" y="167.84668"/>
</g>
<path style="fill:none;stroke-width:1.2;stroke-linecap:butt;stroke-linejoin:miter;stroke:rgb(0%,0%,0%);stroke-opacity:1;stroke-miterlimit:10;" d="M 35.25 147.851562 L 40.417969 123.144531 "/>
<path style="fill:none;stroke-width:1.2;stroke-linecap:butt;stroke-linejoin:miter;stroke:rgb(0%,0%,0%);stroke-opacity:1;stroke-miterlimit:10;" d="M 40.417969 123.144531 L 64.402344 115.265625 "/>
<path style="fill:none;stroke-width:1.2;stroke-linecap:butt;stroke-linejoin:miter;stroke:rgb(0%,0%,0%);stroke-opacity:1;stroke-miterlimit:10;" d="M 64.402344 115.265625 L 83.21875 132.09375 "/>
<path style="fill:none;stroke-width:1.2;stroke-linecap:butt;stroke-linejoin:miter;stroke:rgb(0%,0%,0%);stroke-opacity:1;stroke-miterlimit:10;" d="M 83.21875 132.09375 L 78.050781 156.804688 "/>
<path style="fill:none;stroke-width:1.2;stroke-linecap:butt;stroke-linejoin:miter;stroke:rgb(0%,0%,0%);stroke-opacity:1;stroke-miterlimit:10;" d="M 83.21875 132.09375 L 102.03125 148.925781 "/>
<path style="fill:none;stroke-width:1.2;stroke-linecap:butt;stroke-linejoin:miter;stroke:rgb(0%,0%,0%);stroke-opacity:1;stroke-miterlimit:10;" d="M 88.386719 107.386719 L 83.21875 132.09375 "/>
<path style="fill:none;stroke-width:1.2;stroke-linecap:butt;stroke-linejoin:miter;stroke:rgb(0%,0%,0%);stroke-opacity:1;stroke-miterlimit:10;" d="M 102.03125 148.925781 L 126.015625 141.046875 "/>
<path style="fill:none;stroke-width:1.2;stroke-linecap:butt;stroke-linejoin:miter;stroke:rgb(0%,0%,0%);stroke-opacity:1;stroke-miterlimit:10;" d="M 126.015625 141.046875 L 128.601562 128.691406 "/>
<path style="fill:none;stroke-width:1.2;stroke-linecap:butt;stroke-linejoin:miter;stroke:rgb(0%,0%,100%);stroke-opacity:1;stroke-miterlimit:10;" d="M 128.601562 128.691406 L 131.183594 116.335938 "/>
<path style="fill:none;stroke-width:1.2;stroke-linecap:butt;stroke-linejoin:miter;stroke:rgb(0%,0%,100%);stroke-opacity:1;stroke-miterlimit:10;" d="M 131.183594 116.335938 L 121.777344 107.921875 "/>
<path style="fill:none;stroke-width:1.2;stroke-linecap:butt;stroke-linejoin:miter;stroke:rgb(0%,0%,0%);stroke-opacity:1;stroke-miterlimit:10;" d="M 121.777344 107.921875 L 112.371094 99.507812 "/>
<path style="fill:none;stroke-width:1.2;stroke-linecap:butt;stroke-linejoin:miter;stroke:rgb(0%,0%,100%);stroke-opacity:1;stroke-miterlimit:10;" d="M 131.183594 116.335938 L 143.175781 112.398438 "/>
<path style="fill:none;stroke-width:1.2;stroke-linecap:butt;stroke-linejoin:miter;stroke:rgb(0%,0%,0%);stroke-opacity:1;stroke-miterlimit:10;" d="M 143.175781 112.398438 L 155.167969 108.460938 "/>
<path style=" stroke:none;fill-rule:nonzero;fill:rgb(100%,100%,100%);fill-opacity:1;" d="M 128.183594 110.835938 L 135.183594 110.835938 L 135.183594 121.835938 L 128.183594 121.835938 Z M 128.183594 110.835938 "/>
<g style="fill:rgb(0%,0%,100%);fill-opacity:1;">
  <use xlink:href="#glyph0-1" x="128.183594" y="119.499023"/>
</g>
<path style="fill:none;stroke-width:1.2;stroke-linecap:butt;stroke-linejoin:miter;stroke:rgb(0%,0%,0%);stroke-opacity:1;stroke-miterlimit:10;" d="M 112.371094 99.507812 L 88.386719 107.386719 "/>
<path style="fill:none;stroke-width:1.2;stroke-linecap:butt;stroke-linejoin:miter;stroke:rgb(0%,0%,0%);stroke-opacity:1;stroke-miterlimit:10;" d="M 158.074219 109.066406 L 160.660156 96.710938 "/>
<path style="fill:none;stroke-width:1.2;stroke-linecap:butt;stroke-linejoin:miter;stroke:rgb(100%,0%,0%);stroke-opacity:1;stroke-miterlimit:10;" d="M 160.660156 96.710938 L 163.242188 84.355469 "/>
<path style="fill:none;stroke-width:1.2;stroke-linecap:butt;stroke-linejoin:miter;stroke:rgb(0%,0%,0%);stroke-opacity:1;stroke-miterlimit:10;" d="M 152.261719 107.851562 L 154.847656 95.496094 "/>
<path style="fill:none;stroke-width:1.2;stroke-linecap:butt;stroke-linejoin:miter;stroke:rgb(100%,0%,0%);stroke-opacity:1;stroke-miterlimit:10;" d="M 154.847656 95.496094 L 157.429688 83.140625 "/>
<path style="fill:none;stroke-width:1.2;stroke-linecap:butt;stroke-linejoin:miter;stroke:rgb(0%,0%,0%);stroke-opacity:1;stroke-miterlimit:10;" d="M 155.167969 108.460938 L 173.984375 125.289062 "/>
<path style=" stroke:none;fill-rule:nonzero;fill:rgb(100%,100%,100%);fill-opacity:1;" d="M 156.335938 78.25 L 164.335938 78.25 L 164.335938 89.25 L 156.335938 89.25 Z M 156.335938 78.25 "/>
<g style="fill:rgb(100%,0%,0%);fill-opacity:1;">
  <use xlink:href="#glyph0-2" x="156.335938" y="86.913086"/>
</g>
<path style="fill:none;stroke-width:1.2;stroke-linecap:butt;stroke-linejoin:miter;stroke:rgb(0%,0%,0%);stroke-opacity:1;stroke-miterlimit:10;" d="M 173.984375 125.289062 L 168.816406 150 "/>
<path style="fill:none;stroke-width:1.2;stroke-linecap:butt;stroke-linejoin:miter;stroke:rgb(0%,0%,0%);stroke-opacity:1;stroke-miterlimit:10;" d="M 179.28125 128.976562 L 175.144531 148.746094 "/>
<path style="fill:none;stroke-width:1.2;stroke-linecap:butt;stroke-linejoin:miter;stroke:rgb(0%,0%,0%);stroke-opacity:1;stroke-miterlimit:10;" d="M 197.96875 117.410156 L 173.984375 125.289062 "/>
<path style="fill:none;stroke-width:1.2;stroke-linecap:butt;stroke-linejoin:miter;stroke:rgb(0%,0%,0%);stroke-opacity:1;stroke-miterlimit:10;" d="M 168.816406 150 L 187.628906 166.832031 "/>
<path style="fill:none;stroke-width:1.2;stroke-linecap:butt;stroke-linejoin:miter;stroke:rgb(0%,0%,0%);stroke-opacity:1;stroke-miterlimit:10;" d="M 187.628906 166.832031 L 211.613281 158.953125 "/>
<path style="fill:none;stroke-width:1.2;stroke-linecap:butt;stroke-linejoin:miter;stroke:rgb(0%,0%,0%);stroke-opacity:1;stroke-miterlimit:10;" d="M 188.175781 160.398438 L 207.363281 154.097656 "/>
<path style="fill:none;stroke-width:1.2;stroke-linecap:butt;stroke-linejoin:miter;stroke:rgb(0%,0%,0%);stroke-opacity:1;stroke-miterlimit:10;" d="M 187.628906 166.832031 L 182.460938 191.539062 "/>
<path style="fill:none;stroke-width:1.2;stroke-linecap:butt;stroke-linejoin:miter;stroke:rgb(0%,0%,0%);stroke-opacity:1;stroke-miterlimit:10;" d="M 211.613281 158.953125 L 216.78125 134.242188 "/>
<path style="fill:none;stroke-width:1.2;stroke-linecap:butt;stroke-linejoin:miter;stroke:rgb(0%,0%,0%);stroke-opacity:1;stroke-miterlimit:10;" d="M 216.78125 134.242188 L 197.96875 117.410156 "/>
<path style="fill:none;stroke-width:1.2;stroke-linecap:butt;stroke-linejoin:miter;stroke:rgb(0%,0%,0%);stroke-opacity:1;stroke-miterlimit:10;" d="M 210.941406 136.984375 L 195.890625 123.519531 "/>
<path style="fill:none;stroke-width:1.2;stroke-linecap:butt;stroke-linejoin:miter;stroke:rgb(0%,0%,0%);stroke-opacity:1;stroke-miterlimit:10;" d="M 216.78125 134.242188 L 240.765625 126.363281 "/>
<path style="fill:none;stroke-width:1.2;stroke-linecap:butt;stroke-linejoin:miter;stroke:rgb(0%,0%,0%);stroke-opacity:1;stroke-miterlimit:10;" d="M 240.765625 126.363281 L 252.757812 122.425781 "/>
<path style="fill:none;stroke-width:1.2;stroke-linecap:butt;stroke-linejoin:miter;stroke:rgb(20%,80%,80%);stroke-opacity:1;stroke-miterlimit:10;" d="M 252.757812 122.425781 L 264.75 118.484375 "/>
<path style="fill:none;stroke-width:1.2;stroke-linecap:butt;stroke-linejoin:miter;stroke:rgb(0%,0%,0%);stroke-opacity:1;stroke-miterlimit:10;" d="M 240.765625 126.363281 L 244.707031 138.355469 "/>
<path style="fill:none;stroke-width:1.2;stroke-linecap:butt;stroke-linejoin:miter;stroke:rgb(20%,80%,80%);stroke-opacity:1;stroke-miterlimit:10;" d="M 244.707031 138.355469 L 248.644531 150.347656 "/>
<path style="fill:none;stroke-width:1.2;stroke-linecap:butt;stroke-linejoin:miter;stroke:rgb(0%,0%,0%);stroke-opacity:1;stroke-miterlimit:10;" d="M 240.765625 126.363281 L 236.828125 114.371094 "/>
<path style="fill:none;stroke-width:1.2;stroke-linecap:butt;stroke-linejoin:miter;stroke:rgb(20%,80%,80%);stroke-opacity:1;stroke-miterlimit:10;" d="M 236.828125 114.371094 L 232.886719 102.378906 "/>
<path style=" stroke:none;fill-rule:nonzero;fill:rgb(100%,100%,100%);fill-opacity:1;" d="M 261.75 112.984375 L 267.75 112.984375 L 267.75 123.984375 L 261.75 123.984375 Z M 261.75 112.984375 "/>
<g style="fill:rgb(20%,80%,80%);fill-opacity:1;">
  <use xlink:href="#glyph0-3" x="261.75" y="121.647461"/>
</g>
<path style=" stroke:none;fill-rule:nonzero;fill:rgb(100%,100%,100%);fill-opacity:1;" d="M 245.644531 144.847656 L 251.644531 144.847656 L 251.644531 155.847656 L 245.644531 155.847656 Z M 245.644531 144.847656 "/>
<g style="fill:rgb(20%,80%,80%);fill-opacity:1;">
  <use xlink:href="#glyph0-3" x="245.644531" y="153.510742"/>
</g>
<path style=" stroke:none;fill-rule:nonzero;fill:rgb(100%,100%,100%);fill-opacity:1;" d="M 226.886719 96.878906 L 232.886719 96.878906 L 232.886719 107.878906 L 226.886719 107.878906 Z M 226.886719 96.878906 "/>
<g style="fill:rgb(20%,80%,80%);fill-opacity:1;">
  <use xlink:href="#glyph0-3" x="226.886719" y="105.541992"/>
</g>
<path style="fill:none;stroke-width:1.2;stroke-linecap:butt;stroke-linejoin:miter;stroke:rgb(0%,0%,0%);stroke-opacity:1;stroke-miterlimit:10;" d="M 182.460938 191.539062 L 179.878906 203.894531 "/>
<path style="fill:none;stroke-width:1.2;stroke-linecap:butt;stroke-linejoin:miter;stroke:rgb(20%,80%,80%);stroke-opacity:1;stroke-miterlimit:10;" d="M 179.878906 203.894531 L 177.292969 216.25 "/>
<path style="fill:none;stroke-width:1.2;stroke-linecap:butt;stroke-linejoin:miter;stroke:rgb(0%,0%,0%);stroke-opacity:1;stroke-miterlimit:10;" d="M 182.460938 191.539062 L 170.105469 188.957031 "/>
<path style="fill:none;stroke-width:1.2;stroke-linecap:butt;stroke-linejoin:miter;stroke:rgb(20%,80%,80%);stroke-opacity:1;stroke-miterlimit:10;" d="M 170.105469 188.957031 L 157.75 186.371094 "/>
<path style="fill:none;stroke-width:1.2;stroke-linecap:butt;stroke-linejoin:miter;stroke:rgb(0%,0%,0%);stroke-opacity:1;stroke-miterlimit:10;" d="M 182.460938 191.539062 L 194.816406 194.125 "/>
<path style="fill:none;stroke-width:1.2;stroke-linecap:butt;stroke-linejoin:miter;stroke:rgb(20%,80%,80%);stroke-opacity:1;stroke-miterlimit:10;" d="M 194.816406 194.125 L 207.171875 196.710938 "/>
<path style=" stroke:none;fill-rule:nonzero;fill:rgb(100%,100%,100%);fill-opacity:1;" d="M 174.292969 210.75 L 180.292969 210.75 L 180.292969 221.75 L 174.292969 221.75 Z M 174.292969 210.75 "/>
<g style="fill:rgb(20%,80%,80%);fill-opacity:1;">
  <use xlink:href="#glyph0-3" x="174.292969" y="219.413086"/>
</g>
<path style=" stroke:none;fill-rule:nonzero;fill:rgb(100%,100%,100%);fill-opacity:1;" d="M 151.75 180.871094 L 157.75 180.871094 L 157.75 191.871094 L 151.75 191.871094 Z M 151.75 180.871094 "/>
<g style="fill:rgb(20%,80%,80%);fill-opacity:1;">
  <use xlink:href="#glyph0-3" x="151.75" y="189.53418"/>
</g>
<path style=" stroke:none;fill-rule:nonzero;fill:rgb(100%,100%,100%);fill-opacity:1;" d="M 204.171875 191.210938 L 210.171875 191.210938 L 210.171875 202.210938 L 204.171875 202.210938 Z M 204.171875 191.210938 "/>
<g style="fill:rgb(20%,80%,80%);fill-opacity:1;">
  <use xlink:href="#glyph0-3" x="204.171875" y="199.874023"/>
</g>
</g>
</svg>

<svg xmlns="http://www.w3.org/2000/svg" xmlns:xlink="http://www.w3.org/1999/xlink" width="300pt" height="300pt" viewBox="0 0 300 300"><defs><symbol overflow="visible"><path d="M.453 1.594v-7.938h4.5v7.938zm.5-.5h3.5v-6.938h-3.5zm0 0"/></symbol><symbol overflow="visible" id="a"><path d="M.89-6.563H2.08l2.906 5.485v-5.484h.86V0H4.656L1.75-5.484V0H.89zm0 0"/></symbol><symbol overflow="visible" id="b"><path d="M3.547-5.953c-.65 0-1.164.242-1.547.72-.375.48-.563 1.13-.563 1.952 0 .835.188 1.49.563 1.967.383.48.898.72 1.547.72.644 0 1.156-.24 1.53-.72.376-.476.564-1.132.564-1.968 0-.822-.187-1.474-.562-1.954-.375-.477-.887-.72-1.53-.72zm0-.734c.914 0 1.648.312 2.203.937.55.617.828 1.438.828 2.47 0 1.042-.277 1.87-.828 2.483-.555.617-1.29.922-2.203.922-.93 0-1.668-.305-2.22-.922C.774-1.41.5-2.237.5-3.28c0-1.033.273-1.853.828-2.47.55-.625 1.29-.938 2.22-.938zm0 0"/></symbol><symbol overflow="visible" id="c"><path d="M.89-6.563h3.766v.75h-2.89v1.938h2.61v.734h-2.61V0H.89zm0 0"/></symbol></defs><g><path fill="#fff" d="M0 0h300v300H0z"/><path d="M48.898 189.395l2.582-12.356" stroke-width="1.2" stroke="#000" stroke-miterlimit="10" fill="none"/><path d="M51.48 177.04l2.586-12.356M54.066 164.684l-9.41-8.414" stroke-width="1.2" stroke="#00f" stroke-miterlimit="10" fill="none"/><path d="M44.656 156.27l-9.406-8.418M78.05 156.805l-11.99 3.94" stroke-width="1.2" stroke="#000" stroke-miterlimit="10" fill="none"/><path d="M66.06 160.746l-11.994 3.938" stroke-width="1.2" stroke="#00f" stroke-miterlimit="10" fill="none"/><path d="M51.066 159.184h7v11h-7zm0 0" fill="#fff"/><use xlink:href="#a" x="51.066" y="167.847" fill="#00f"/><path d="M35.25 147.852l5.168-24.707M40.418 123.145l23.984-7.88M64.402 115.266l18.817 16.828M83.22 132.094l-5.17 24.71M83.22 132.094l18.81 16.832M88.387 107.387l-5.168 24.707M102.03 148.926l23.986-7.88M126.016 141.047l2.586-12.356" stroke-width="1.2" stroke="#000" stroke-miterlimit="10" fill="none"/><path d="M128.602 128.69l2.582-12.354M131.184 116.336l-9.407-8.414" stroke-width="1.2" stroke="#00f" stroke-miterlimit="10" fill="none"/><path d="M121.777 107.922l-9.406-8.414" stroke-width="1.2" stroke="#000" stroke-miterlimit="10" fill="none"/><path d="M131.184 116.336l11.992-3.938" stroke-width="1.2" stroke="#00f" stroke-miterlimit="10" fill="none"/><path d="M143.176 112.398l11.992-3.937" stroke-width="1.2" stroke="#000" stroke-miterlimit="10" fill="none"/><path d="M128.184 110.836h7v11h-7zm0 0" fill="#fff"/><use xlink:href="#a" x="128.184" y="119.499" fill="#00f"/><path d="M112.37 99.508l-23.983 7.88M158.074 109.066l2.586-12.355" stroke-width="1.2" stroke="#000" stroke-miterlimit="10" fill="none"/><path d="M160.66 96.71l2.582-12.355" stroke-width="1.2" stroke="#f00" stroke-miterlimit="10" fill="none"/><path d="M152.262 107.852l2.586-12.356" stroke-width="1.2" stroke="#000" stroke-miterlimit="10" fill="none"/><path d="M154.848 95.496l2.582-12.355" stroke-width="1.2" stroke="#f00" stroke-miterlimit="10" fill="none"/><path d="M155.168 108.46l18.816 16.83" stroke-width="1.2" stroke="#000" stroke-miterlimit="10" fill="none"/><path d="M156.336 78.25h8v11h-8zm0 0" fill="#fff"/><use xlink:href="#b" x="156.336" y="86.913" fill="#f00"/><path d="M173.984 125.29L168.816 150M179.28 128.977l-4.135 19.77M197.97 117.41l-23.986 7.88M168.816 150l18.813 16.832M187.63 166.832l23.983-7.88M188.176 160.398l19.187-6.3M187.63 166.832l-5.17 24.707M211.613 158.953l5.168-24.71M216.78 134.242l-18.81-16.832M210.94 136.984l-15.05-13.464M216.78 134.242l23.986-7.88M240.766 126.363l11.992-3.937" stroke-width="1.2" stroke="#000" stroke-miterlimit="10" fill="none"/><path d="M252.758 122.426l11.992-3.942" stroke-width="1.2" stroke="#3cc" stroke-miterlimit="10" fill="none"/><path d="M240.766 126.363l3.94 11.992" stroke-width="1.2" stroke="#000" stroke-miterlimit="10" fill="none"/><path d="M244.707 138.355l3.938 11.993" stroke-width="1.2" stroke="#3cc" stroke-miterlimit="10" fill="none"/><path d="M240.766 126.363l-3.938-11.992" stroke-width="1.2" stroke="#000" stroke-miterlimit="10" fill="none"/><path d="M236.828 114.37l-3.94-11.99" stroke-width="1.2" stroke="#3cc" stroke-miterlimit="10" fill="none"/><path d="M261.75 112.984h6v11h-6zm0 0" fill="#fff"/><use xlink:href="#c" x="261.75" y="121.647" fill="#3cc"/><path d="M245.645 144.848h6v11h-6zm0 0" fill="#fff"/><use xlink:href="#c" x="245.645" y="153.511" fill="#3cc"/><path d="M226.887 96.88h6v11h-6zm0 0" fill="#fff"/><use xlink:href="#c" x="226.887" y="105.542" fill="#3cc"/><path d="M182.46 191.54l-2.58 12.355" stroke-width="1.2" stroke="#000" stroke-miterlimit="10" fill="none"/><path d="M179.88 203.895l-2.587 12.355" stroke-width="1.2" stroke="#3cc" stroke-miterlimit="10" fill="none"/><path d="M182.46 191.54l-12.355-2.583" stroke-width="1.2" stroke="#000" stroke-miterlimit="10" fill="none"/><path d="M170.105 188.957l-12.355-2.586" stroke-width="1.2" stroke="#3cc" stroke-miterlimit="10" fill="none"/><path d="M182.46 191.54l12.356 2.585" stroke-width="1.2" stroke="#000" stroke-miterlimit="10" fill="none"/><path d="M194.816 194.125l12.356 2.586" stroke-width="1.2" stroke="#3cc" stroke-miterlimit="10" fill="none"/><path d="M174.293 210.75h6v11h-6zm0 0" fill="#fff"/><use xlink:href="#c" x="174.293" y="219.413" fill="#3cc"/><path d="M151.75 180.87h6v11h-6zm0 0" fill="#fff"/><use xlink:href="#c" x="151.75" y="189.534" fill="#3cc"/><path d="M204.172 191.21h6v11h-6zm0 0" fill="#fff"/><use xlink:href="#c" x="204.172" y="199.874" fill="#3cc"/></g></svg>
